assets/i18n/b-se-dk.svg

<?xml version="1.0" encoding="UTF-8"?>
<svg width="263px" height="24px" viewBox="0 0 263 24" version="1.1" xmlns="http://www.w3.org/2000/svg" xmlns:xlink="http://www.w3.org/1999/xlink">
    <!-- Generator: Sketch 51.3 (57544) - http://www.bohemiancoding.com/sketch -->
    <title>SwG-SE Copy-Black</title>
    <desc>Created with Sketch.</desc>
    <defs></defs>
    <g id="SwG-SE-Copy" stroke="none" stroke-width="1" fill="none" fill-rule="evenodd">
        <path d="M3.772,19 L1.656,19 L1.656,2.532 L7.268,2.532 C8.66334031,2.532 9.87082823,2.9958287 10.8905,3.9235 C11.9101718,4.85117131 12.42,6.02032628 12.42,7.431 C12.42,8.84167372 11.9101718,10.0108287 10.8905,10.9385 C9.87082823,11.8661713 8.66334031,12.33 7.268,12.33 L3.772,12.33 L3.772,19 Z M3.772,10.306 L7.314,10.306 C8.20333778,10.306 8.91633065,10.007003 9.453,9.409 C9.98966935,8.81099701 10.258,8.15167027 10.258,7.431 C10.258,6.71032973 9.98966935,6.05100299 9.453,5.453 C8.91633065,4.85499701 8.20333778,4.556 7.314,4.556 L3.772,4.556 L3.772,10.306 Z M16.51975,19 L14.40375,19 L14.40375,7.73 L16.42775,7.73 L16.42775,9.57 L16.51975,9.57 C16.7344177,8.9566636 17.1752467,8.45066866 17.84225,8.052 C18.5092533,7.65333134 19.1570802,7.454 19.78575,7.454 C20.4144198,7.454 20.9434145,7.54599908 21.37275,7.73 L20.56775,9.708 C20.2917486,9.60066613 19.9160857,9.547 19.44075,9.547 C18.6740795,9.547 17.9955863,9.84983031 17.40525,10.4555 C16.8149137,11.0611697 16.51975,11.8546618 16.51975,12.836 L16.51975,19 Z M27.3125,19.368 C25.6104915,19.368 24.226672,18.8006723 23.161,17.666 C22.095328,16.5313277 21.5625,15.0976753 21.5625,13.365 C21.5625,11.7243251 22.0799948,10.3136726 23.115,9.133 C24.1500052,7.95232743 25.472492,7.362 27.0825,7.362 C28.7538417,7.362 30.0916616,7.90632789 31.096,8.995 C32.1003384,10.0836721 32.6025,11.5403242 32.6025,13.365 L32.5795,13.756 L23.6785,13.756 C23.7398336,14.8906723 24.1193298,15.7876634 24.817,16.447 C25.5146702,17.1063366 26.331162,17.436 27.2665,17.436 C28.7845076,17.436 29.8118307,16.7920064 30.3485,15.504 L32.2345,16.286 C31.8664982,17.1600044 31.2608376,17.8921637 30.4175,18.4825 C29.5741625,19.0728363 28.5391728,19.368 27.3125,19.368 Z M30.3485,12.008 C30.3024998,11.3639968 30.0073361,10.7506696 29.463,10.168 C28.9186639,9.58533042 28.1098387,9.294 27.0365,9.294 C26.2544961,9.294 25.5760029,9.53933088 25.001,10.03 C24.4259971,10.5206691 24.0311677,11.1799959 23.8165,12.008 L30.3485,12.008 Z M36.70225,7.73 L36.70225,9.294 L36.79425,9.294 C37.1009182,8.75733065 37.5839134,8.30116854 38.24325,7.9255 C38.9025866,7.54983145 39.6079129,7.362 40.35925,7.362 C41.7545903,7.362 42.8202463,7.79132904 43.55625,8.65 C44.2922537,9.50867096 44.66025,10.6586595 44.66025,12.1 L44.66025,19 L42.54425,19 L42.54425,12.422 C42.54425,10.3366562 41.6165926,9.294 39.76125,9.294 C38.8872456,9.294 38.1742528,9.64282985 37.62225,10.3405 C37.0702472,11.0381702 36.79425,11.8469954 36.79425,12.767 L36.79425,19 L34.67825,19 L34.67825,7.73 L36.70225,7.73 Z M57.178,19 L55.154,19 L55.154,17.436 L55.062,17.436 C54.7399984,17.9726693 54.2493366,18.4288315 53.59,18.8045 C52.9306634,19.1801685 52.2330037,19.368 51.497,19.368 C50.0863263,19.368 49.016837,18.938671 48.2885,18.08 C47.560163,17.221329 47.196,16.0713405 47.196,14.63 L47.196,7.73 L49.312,7.73 L49.312,14.285 C49.312,16.3856772 50.2396574,17.436 52.095,17.436 C52.9690044,17.436 53.6819972,17.0833369 54.234,16.378 C54.7860028,15.6726631 55.062,14.8600046 55.062,13.94 L55.062,7.73 L57.178,7.73 L57.178,19 Z M59.89775,19 L59.89775,7.73 L61.92175,7.73 L61.92175,9.294 L62.01375,9.294 C62.3357516,8.75733065 62.8302467,8.30116854 63.49725,7.9255 C64.1642533,7.54983145 64.8274134,7.362 65.48675,7.362 C67.2347587,7.362 68.4230802,8.08265946 69.05175,9.524 C69.9717546,8.08265946 71.2827415,7.362 72.98475,7.362 C74.3187567,7.362 75.32308,7.78749575 75.99775,8.6385 C76.67242,9.48950426 77.00975,10.6433261 77.00975,12.1 L77.00975,19 L74.89375,19 L74.89375,12.422 C74.89375,11.2873277 74.6867521,10.4823357 74.27275,10.007 C73.8587479,9.53166429 73.2300875,9.294 72.38675,9.294 C71.5587459,9.294 70.8725861,9.64666314 70.32825,10.352 C69.7839139,11.0573369 69.51175,11.8623288 69.51175,12.767 L69.51175,19 L67.39575,19 L67.39575,12.422 C67.39575,11.2873277 67.1887521,10.4823357 66.77475,10.007 C66.3607479,9.53166429 65.7320876,9.294 64.88875,9.294 C64.0607459,9.294 63.3745861,9.64666314 62.83025,10.352 C62.2859139,11.0573369 62.01375,11.8623288 62.01375,12.767 L62.01375,19 L59.89775,19 Z M84.7435,19.368 C83.0414915,19.368 81.657672,18.8006723 80.592,17.666 C79.526328,16.5313277 78.9935,15.0976753 78.9935,13.365 C78.9935,11.7243251 79.5109948,10.3136726 80.546,9.133 C81.5810052,7.95232743 82.903492,7.362 84.5135,7.362 C86.1848417,7.362 87.5226616,7.90632789 88.527,8.995 C89.5313384,10.0836721 90.0335,11.5403242 90.0335,13.365 L90.0105,13.756 L81.1095,13.756 C81.1708336,14.8906723 81.5503298,15.7876634 82.248,16.447 C82.9456702,17.1063366 83.762162,17.436 84.6975,17.436 C86.2155076,17.436 87.2428307,16.7920064 87.7795,15.504 L89.6655,16.286 C89.2974982,17.1600044 88.6918376,17.8921637 87.8485,18.4825 C87.0051625,19.0728363 85.9701728,19.368 84.7435,19.368 Z M87.7795,12.008 C87.7334998,11.3639968 87.4383361,10.7506696 86.894,10.168 C86.3496639,9.58533042 85.5408387,9.294 84.4675,9.294 C83.6854961,9.294 83.0070029,9.53933088 82.432,10.03 C81.8569971,10.5206691 81.4621677,11.1799959 81.2475,12.008 L87.7795,12.008 Z M94.22525,19 L92.10925,19 L92.10925,7.73 L94.13325,7.73 L94.13325,9.57 L94.22525,9.57 C94.4399177,8.9566636 94.8807467,8.45066866 95.54775,8.052 C96.2147533,7.65333134 96.8625802,7.454 97.49125,7.454 C98.1199198,7.454 98.6489145,7.54599908 99.07825,7.73 L98.27325,9.708 C97.9972486,9.60066613 97.6215857,9.547 97.14625,9.547 C96.3795795,9.547 95.7010863,9.84983031 95.11075,10.4555 C94.5204137,11.0611697 94.22525,11.8546618 94.22525,12.836 L94.22525,19 Z M105.018,19.368 C103.315991,19.368 101.932172,18.8006723 100.8665,17.666 C99.800828,16.5313277 99.268,15.0976753 99.268,13.365 C99.268,11.7243251 99.7854948,10.3136726 100.8205,9.133 C101.855505,7.95232743 103.177992,7.362 104.788,7.362 C106.459342,7.362 107.797162,7.90632789 108.8015,8.995 C109.805838,10.0836721 110.308,11.5403242 110.308,13.365 L110.285,13.756 L101.384,13.756 C101.445334,14.8906723 101.82483,15.7876634 102.5225,16.447 C103.22017,17.1063366 104.036662,17.436 104.972,17.436 C106.490008,17.436 107.517331,16.7920064 108.054,15.504 L109.94,16.286 C109.571998,17.1600044 108.966338,17.8921637 108.123,18.4825 C107.279662,19.0728363 106.244673,19.368 105.018,19.368 Z M108.054,12.008 C108.008,11.3639968 107.712836,10.7506696 107.1685,10.168 C106.624164,9.58533042 105.815339,9.294 104.742,9.294 C103.959996,9.294 103.281503,9.53933088 102.7065,10.03 C102.131497,10.5206691 101.736668,11.1799959 101.522,12.008 L108.054,12.008 Z M114.49975,19 L112.38375,19 L112.38375,7.73 L114.40775,7.73 L114.40775,9.57 L114.49975,9.57 C114.714418,8.9566636 115.155247,8.45066866 115.82225,8.052 C116.489253,7.65333134 117.13708,7.454 117.76575,7.454 C118.39442,7.454 118.923415,7.54599908 119.35275,7.73 L118.54775,9.708 C118.271749,9.60066613 117.896086,9.547 117.42075,9.547 C116.65408,9.547 115.975586,9.84983031 115.38525,10.4555 C114.794914,11.0611697 114.49975,11.8546618 114.49975,12.836 L114.49975,19 Z M123.9815,19.368 C122.785494,19.368 121.785004,19.0230035 120.98,18.333 C120.174996,17.6429965 119.7725,16.7306723 119.7725,15.596 C119.7725,14.3693272 120.247829,13.4071702 121.1985,12.7095 C122.149171,12.0118298 123.32216,11.663 124.7175,11.663 C125.959506,11.663 126.979163,11.8929977 127.7765,12.353 L127.7765,12.031 C127.7765,11.2029959 127.492836,10.5398358 126.9255,10.0415 C126.358164,9.54316418 125.660504,9.294 124.8325,9.294 C124.219164,9.294 123.663336,9.43966521 123.165,9.731 C122.666664,10.0223348 122.325501,10.4209975 122.1415,10.927 L120.2095,10.099 C120.470168,9.42432996 120.983829,8.79950287 121.7505,8.2245 C122.517171,7.64949712 123.52916,7.362 124.7865,7.362 C126.227841,7.362 127.423829,7.78366245 128.3745,8.627 C129.325171,9.47033755 129.8005,10.658659 129.8005,12.192 L129.8005,19 L127.7765,19 L127.7765,17.436 L127.6845,17.436 C126.841162,18.7240064 125.606841,19.368 123.9815,19.368 Z M124.3265,17.436 C125.200504,17.436 125.993996,17.1101699 126.707,16.4585 C127.420004,15.8068301 127.7765,15.0363378 127.7765,14.147 C127.178497,13.6563309 126.281506,13.411 125.0855,13.411 C124.058162,13.411 123.283836,13.6333311 122.7625,14.078 C122.241164,14.5226689 121.9805,15.043997 121.9805,15.642 C121.9805,16.1940028 122.218164,16.6309984 122.6935,16.953 C123.168836,17.2750016 123.713164,17.436 124.3265,17.436 Z M137.54,19 L137.54,7.73 L139.564,7.73 L139.564,9.294 L139.656,9.294 C139.978002,8.75733065 140.472497,8.30116854 141.1395,7.9255 C141.806503,7.54983145 142.469663,7.362 143.129,7.362 C144.877009,7.362 146.06533,8.08265946 146.694,9.524 C147.614005,8.08265946 148.924991,7.362 150.627,7.362 C151.961007,7.362 152.96533,7.78749575 153.64,8.6385 C154.31467,9.48950426 154.652,10.6433261 154.652,12.1 L154.652,19 L152.536,19 L152.536,12.422 C152.536,11.2873277 152.329002,10.4823357 151.915,10.007 C151.500998,9.53166429 150.872338,9.294 150.029,9.294 C149.200996,9.294 148.514836,9.64666314 147.9705,10.352 C147.426164,11.0573369 147.154,11.8623288 147.154,12.767 L147.154,19 L145.038,19 L145.038,12.422 C145.038,11.2873277 144.831002,10.4823357 144.417,10.007 C144.002998,9.53166429 143.374338,9.294 142.531,9.294 C141.702996,9.294 141.016836,9.64666314 140.4725,10.352 C139.928164,11.0573369 139.656,11.8623288 139.656,12.767 L139.656,19 L137.54,19 Z M162.38575,19.368 C160.683741,19.368 159.299922,18.8006723 158.23425,17.666 C157.168578,16.5313277 156.63575,15.0976753 156.63575,13.365 C156.63575,11.7243251 157.153245,10.3136726 158.18825,9.133 C159.223255,7.95232743 160.545742,7.362 162.15575,7.362 C163.827092,7.362 165.164912,7.90632789 166.16925,8.995 C167.173588,10.0836721 167.67575,11.5403242 167.67575,13.365 L167.65275,13.756 L158.75175,13.756 C158.813084,14.8906723 159.19258,15.7876634 159.89025,16.447 C160.58792,17.1063366 161.404412,17.436 162.33975,17.436 C163.857758,17.436 164.885081,16.7920064 165.42175,15.504 L167.30775,16.286 C166.939748,17.1600044 166.334088,17.8921637 165.49075,18.4825 C164.647412,19.0728363 163.612423,19.368 162.38575,19.368 Z M165.42175,12.008 C165.37575,11.3639968 165.080586,10.7506696 164.53625,10.168 C163.991914,9.58533042 163.183089,9.294 162.10975,9.294 C161.327746,9.294 160.649253,9.53933088 160.07425,10.03 C159.499247,10.5206691 159.104418,11.1799959 158.88975,12.008 L165.42175,12.008 Z M174.5815,19.368 C173.124826,19.368 171.867505,18.7930057 170.8095,17.643 C169.751495,16.4929942 169.2225,15.0670085 169.2225,13.365 C169.2225,11.6629915 169.751495,10.2370057 170.8095,9.087 C171.867505,7.93699425 173.124826,7.362 174.5815,7.362 C175.440171,7.362 176.210663,7.54599816 176.893,7.914 C177.575337,8.28200184 178.085165,8.74199724 178.4225,9.294 L178.5145,9.294 L178.4225,7.73 L178.4225,2.532 L180.5385,2.532 L180.5385,19 L178.5145,19 L178.5145,17.436 L178.4225,17.436 C178.085165,17.9880028 177.575337,18.4479982 176.893,18.816 C176.210663,19.1840018 175.440171,19.368 174.5815,19.368 Z M174.9265,17.436 C175.923172,17.436 176.77033,17.0680037 177.468,16.332 C178.16567,15.5959963 178.5145,14.6070062 178.5145,13.365 C178.5145,12.1229938 178.16567,11.1340037 177.468,10.398 C176.77033,9.66199632 175.923172,9.294 174.9265,9.294 C173.945162,9.294 173.101837,9.66582961 172.3965,10.4095 C171.691163,11.1531704 171.3385,12.1383272 171.3385,13.365 C171.3385,14.5916728 171.691163,15.5768296 172.3965,16.3205 C173.101837,17.0641704 173.945162,17.436 174.9265,17.436 Z" id="Prenumerera-med" fill="#FFFFFF"></path>
        <g id="Group" transform="translate(188.000000, 0.000000)" fill="#FFFFFF" fill-rule="nonzero">
            <path d="M9.36714443,19 C4.27673649,19 0,14.7346939 0,9.5 C0,4.26530612 4.27673649,0 9.36714443,0 C12.185226,0 14.1896362,1.13265306 15.6979052,2.62244898 L13.92172,4.44897959 C12.8401323,3.40816327 11.3715546,2.59183673 9.36714443,2.59183673 C5.646086,2.59183673 2.73869901,5.67346939 2.73869901,9.5 C2.73869901,13.3265306 5.646086,16.4081633 9.36714443,16.4081633 C11.7783903,16.4081633 13.1477398,15.4081633 14.030871,14.5102041 C14.755237,13.7653061 15.2216097,12.7040816 15.4002205,11.244898 L9.36714443,11.244898 L9.36714443,8.64285714 L17.8610805,8.64285714 C17.9503859,9.10204082 18,9.66326531 18,10.2653061 C18,12.2142857 17.4840132,14.622449 15.8169791,16.3367347 C14.1896362,18.0714286 12.1256891,19 9.36714443,19 Z" id="Shape"></path>
            <path d="M32,13 C32,16.4557596 29.3096447,19 26,19 C22.6903553,19 20,16.4557596 20,13 C20,9.52420701 22.6903553,7 26,7 C29.3096447,7 32,9.52420701 32,13 Z M29.3705584,13 C29.3705584,10.836394 27.8071066,9.3639399 26,9.3639399 C24.1928934,9.3639399 22.6294416,10.8464107 22.6294416,13 C22.6294416,15.1335559 24.1928934,16.6360601 26,16.6360601 C27.8071066,16.6360601 29.3705584,15.1435726 29.3705584,13 Z" id="Shape"></path>
            <path d="M45,13 C45,16.4557596 42.3096447,19 39,19 C35.7005076,19 33,16.4557596 33,13 C33,9.52420701 35.6903553,7 39,7 C42.3096447,7 45,9.52420701 45,13 Z M42.3807107,13 C42.3807107,10.836394 40.8172589,9.3639399 39.0101523,9.3639399 C37.2030457,9.3639399 35.6395939,10.8464107 35.6395939,13 C35.6395939,15.1335559 37.2030457,16.6360601 39.0101523,16.6360601 C40.8172589,16.6460768 42.3807107,15.1435726 42.3807107,13 Z" id="Shape"></path>
            <path d="M57,7.3621186 L57,17.8929188 C57,22.228555 54.5013055,24 51.5430809,24 C48.7571802,24 47.0913838,22.0915371 46.45953,20.5354059 L48.6518712,19.6056419 C49.0443864,20.5647668 50.0017406,21.6902706 51.5430809,21.6902706 C53.4386423,21.6902706 54.6066144,20.4864709 54.6066144,18.2452504 L54.6066144,17.4035694 L54.5204526,17.4035694 C53.9556136,18.1180196 52.8642298,18.7345999 51.4952132,18.7345999 C48.6231506,18.7345999 46,16.1801957 46,12.8917674 C46,9.58376511 48.6327241,7 51.4952132,7 C52.8642298,7 53.9556136,7.6263673 54.5204526,8.31145653 L54.6066144,8.31145653 L54.6066144,7.3621186 L57,7.3621186 Z M54.7789382,12.9015544 C54.7789382,10.8364997 53.4290688,9.31951641 51.7154047,9.31951641 C49.97302,9.31951641 48.5178416,10.8267127 48.5178416,12.9015544 C48.5178416,14.9470351 49.97302,16.4346575 51.7154047,16.4346575 C53.4290688,16.4346575 54.7789382,14.9470351 54.7789382,12.9015544 Z" id="Shape"></path>
            <polygon id="Shape" points="63 1 63 19 60 19 60 1"></polygon>
            <path d="M72.8441203,14.9732888 L74.8896992,16.3355593 C74.2278943,17.3171953 72.633546,19 69.8760255,19 C66.4567001,19 64,16.3656093 64,13 C64,9.43405676 66.4867821,7 69.5852325,7 C72.7037375,7 74.2278943,9.47412354 74.7292616,10.8163606 L75,11.4974958 L66.9680948,14.8230384 C67.579763,16.0250417 68.5423883,16.6460768 69.8860529,16.6460768 C71.2297174,16.6460768 72.1622607,15.9749583 72.8441203,14.9732888 Z M66.5369189,12.8096828 L71.911577,10.5859766 C71.6107566,9.83472454 70.72835,9.31385643 69.6754786,9.31385643 C68.331814,9.31385643 66.4667274,10.4958264 66.5369189,12.8096828 Z" id="Shape"></path>
        </g>
    </g>
</svg>

<svg width="263" height="24" viewBox="0 0 263 24" xmlns="http://www.w3.org/2000/svg"><title>SwG-SE-Black</title><desc>Created with Sketch.</desc><g fill="none"><path d="M3.772 19h-2.116v-16.468h5.612c1.395 0 2.603.464 3.622 1.392 1.02.928 1.53 2.097 1.53 3.507 0 1.411-.51 2.58-1.53 3.507-1.02.928-2.227 1.392-3.622 1.392h-3.496v6.67zm0-8.694h3.542c.889 0 1.602-.299 2.139-.897.537-.598.805-1.257.805-1.978 0-.721-.268-1.38-.805-1.978-.537-.598-1.25-.897-2.139-.897h-3.542v5.75zm12.748 8.694h-2.116v-11.27h2.024v1.84h.092c.215-.613.655-1.119 1.323-1.518.667-.399 1.315-.598 1.944-.598s1.158.092 1.587.276l-.805 1.978c-.276-.107-.652-.161-1.127-.161-.767 0-1.445.303-2.036.909-.59.606-.886 1.399-.886 2.38v6.164zm10.793.368c-1.702 0-3.086-.567-4.151-1.702-1.066-1.135-1.599-2.568-1.599-4.301 0-1.641.517-3.051 1.552-4.232 1.035-1.181 2.357-1.771 3.968-1.771 1.671 0 3.009.544 4.014 1.633 1.004 1.089 1.506 2.545 1.506 4.37l-.023.391h-8.901c.061 1.135.441 2.032 1.139 2.691.698.659 1.514.989 2.45.989 1.518 0 2.545-.644 3.082-1.932l1.886.782c-.368.874-.974 1.606-1.817 2.197-.843.59-1.878.885-3.105.885zm3.036-7.36c-.046-.644-.341-1.257-.886-1.84-.544-.583-1.353-.874-2.427-.874-.782 0-1.46.245-2.035.736-.575.491-.97 1.15-1.184 1.978h6.532zm6.354-4.278v1.564h.092c.307-.537.79-.993 1.449-1.369s1.365-.564 2.116-.564c1.395 0 2.461.429 3.197 1.288.736.859 1.104 2.009 1.104 3.45v6.9h-2.116v-6.578c0-2.085-.928-3.128-2.783-3.128-.874 0-1.587.349-2.139 1.046-.552.698-.828 1.506-.828 2.426v6.233h-2.116v-11.27h2.024zm20.476 11.27h-2.024v-1.564h-.092c-.322.537-.813.993-1.472 1.369s-1.357.563-2.093.563c-1.411 0-2.48-.429-3.209-1.288-.728-.859-1.093-2.009-1.093-3.45v-6.9h2.116v6.555c0 2.101.928 3.151 2.783 3.151.874 0 1.587-.353 2.139-1.058.552-.705.828-1.518.828-2.438v-6.21h2.116v11.27zm2.72 0v-11.27h2.024v1.564h.092c.322-.537.816-.993 1.483-1.369.667-.376 1.33-.564 1.989-.564 1.748 0 2.936.721 3.565 2.162.92-1.441 2.231-2.162 3.933-2.162 1.334 0 2.338.425 3.013 1.277.675.851 1.012 2.005 1.012 3.461v6.9h-2.116v-6.578c0-1.135-.207-1.94-.621-2.415-.414-.475-1.043-.713-1.886-.713-.828 0-1.514.353-2.059 1.058-.544.705-.816 1.51-.816 2.415v6.233h-2.116v-6.578c0-1.135-.207-1.94-.621-2.415-.414-.475-1.043-.713-1.886-.713-.828 0-1.514.353-2.059 1.058-.544.705-.816 1.51-.816 2.415v6.233h-2.116zm24.846.368c-1.702 0-3.086-.567-4.151-1.702-1.066-1.135-1.599-2.568-1.599-4.301 0-1.641.517-3.051 1.553-4.232 1.035-1.181 2.357-1.771 3.967-1.771 1.671 0 3.009.544 4.014 1.633 1.004 1.089 1.507 2.545 1.507 4.37l-.023.391h-8.901c.061 1.135.441 2.032 1.139 2.691.698.659 1.514.989 2.45.989 1.518 0 2.545-.644 3.082-1.932l1.886.782c-.368.874-.974 1.606-1.817 2.197-.843.59-1.878.885-3.105.885zm3.036-7.36c-.046-.644-.341-1.257-.885-1.84-.544-.583-1.353-.874-2.427-.874-.782 0-1.46.245-2.035.736-.575.491-.97 1.15-1.184 1.978h6.532zm6.446 6.992h-2.116v-11.27h2.024v1.84h.092c.215-.613.655-1.119 1.322-1.518s1.315-.598 1.944-.598 1.158.092 1.587.276l-.805 1.978c-.276-.107-.652-.161-1.127-.161-.767 0-1.445.303-2.035.909-.59.606-.885 1.399-.885 2.38v6.164zm10.793.368c-1.702 0-3.086-.567-4.151-1.702-1.066-1.135-1.599-2.568-1.599-4.301 0-1.641.517-3.051 1.552-4.232 1.035-1.181 2.357-1.771 3.968-1.771 1.671 0 3.009.544 4.014 1.633 1.004 1.089 1.507 2.545 1.507 4.37l-.023.391h-8.901c.061 1.135.441 2.032 1.138 2.691.698.659 1.514.989 2.45.989 1.518 0 2.545-.644 3.082-1.932l1.886.782c-.368.874-.974 1.606-1.817 2.197-.843.59-1.878.885-3.105.885zm3.036-7.36c-.046-.644-.341-1.257-.886-1.84-.544-.583-1.353-.874-2.426-.874-.782 0-1.46.245-2.035.736-.575.491-.97 1.15-1.184 1.978h6.532zm6.446 6.992h-2.116v-11.27h2.024v1.84h.092c.215-.613.655-1.119 1.322-1.518s1.315-.598 1.944-.598 1.158.092 1.587.276l-.805 1.978c-.276-.107-.652-.161-1.127-.161-.767 0-1.445.303-2.035.909-.59.606-.885 1.399-.885 2.38v6.164zm9.482.368c-1.196 0-2.196-.345-3.001-1.035-.805-.69-1.208-1.602-1.208-2.737 0-1.227.475-2.189 1.426-2.886.951-.698 2.124-1.046 3.519-1.046 1.242 0 2.262.23 3.059.69v-.322c0-.828-.284-1.491-.851-1.99-.567-.498-1.265-.747-2.093-.747-.613 0-1.169.146-1.667.437-.498.291-.839.69-1.024 1.196l-1.932-.828c.261-.675.774-1.299 1.541-1.874.767-.575 1.779-.863 3.036-.863 1.441 0 2.637.422 3.588 1.265.951.843 1.426 2.032 1.426 3.565v6.808h-2.024v-1.564h-.092c-.843 1.288-2.078 1.932-3.703 1.932zm.345-1.932c.874 0 1.667-.326 2.38-.977.713-.652 1.07-1.422 1.07-2.312-.598-.491-1.495-.736-2.691-.736-1.027 0-1.802.222-2.323.667-.521.445-.782.966-.782 1.564 0 .552.238.989.713 1.311.475.322 1.02.483 1.633.483zm13.213 1.564v-11.27h2.024v1.564h.092c.322-.537.816-.993 1.483-1.369.667-.376 1.33-.564 1.989-.564 1.748 0 2.936.721 3.565 2.162.92-1.441 2.231-2.162 3.933-2.162 1.334 0 2.338.425 3.013 1.277.675.851 1.012 2.005 1.012 3.461v6.9h-2.116v-6.578c0-1.135-.207-1.94-.621-2.415-.414-.475-1.043-.713-1.886-.713-.828 0-1.514.353-2.059 1.058-.544.705-.816 1.51-.816 2.415v6.233h-2.116v-6.578c0-1.135-.207-1.94-.621-2.415-.414-.475-1.043-.713-1.886-.713-.828 0-1.514.353-2.059 1.058-.544.705-.816 1.51-.816 2.415v6.233h-2.116zm24.846.368c-1.702 0-3.086-.567-4.151-1.702-1.066-1.135-1.599-2.568-1.599-4.301 0-1.641.517-3.051 1.553-4.232 1.035-1.181 2.357-1.771 3.968-1.771 1.671 0 3.009.544 4.013 1.633s1.506 2.545 1.506 4.37l-.023.391h-8.901c.061 1.135.441 2.032 1.139 2.691.698.659 1.514.989 2.45.989 1.518 0 2.545-.644 3.082-1.932l1.886.782c-.368.874-.974 1.606-1.817 2.197-.843.59-1.878.885-3.105.885zm3.036-7.36c-.046-.644-.341-1.257-.886-1.84-.544-.583-1.353-.874-2.427-.874-.782 0-1.46.245-2.035.736-.575.491-.97 1.15-1.185 1.978h6.532zm9.16 7.36c-1.457 0-2.714-.575-3.772-1.725-1.058-1.15-1.587-2.576-1.587-4.278 0-1.702.529-3.128 1.587-4.278 1.058-1.15 2.315-1.725 3.772-1.725.859 0 1.629.184 2.311.552.682.368 1.192.828 1.53 1.38h.092l-.092-1.564v-5.198h2.116v16.468h-2.024v-1.564h-.092c-.337.552-.847 1.012-1.53 1.38-.682.368-1.453.552-2.311.552zm.345-1.932c.997 0 1.844-.368 2.541-1.104.698-.736 1.047-1.725 1.047-2.967s-.349-2.231-1.047-2.967c-.698-.736-1.545-1.104-2.541-1.104-.981 0-1.825.372-2.53 1.115-.705.744-1.058 1.729-1.058 2.956 0 1.227.353 2.212 1.058 2.955.705.744 1.549 1.116 2.53 1.116z" fill="#fff"/><g fill-rule="nonzero"><path d="M197.367 19c-5.09 0-9.367-4.265-9.367-9.5s4.277-9.5 9.367-9.5c2.818 0 4.822 1.133 6.331 2.622l-1.776 1.827c-1.082-1.041-2.55-1.857-4.555-1.857-3.721 0-6.628 3.082-6.628 6.908 0 3.827 2.907 6.908 6.628 6.908 2.411 0 3.781-1 4.664-1.898.724-.745 1.191-1.806 1.369-3.265h-6.033v-2.602h8.494c.089.459.139 1.02.139 1.622 0 1.949-.516 4.357-2.183 6.071-1.627 1.735-3.691 2.663-6.45 2.663z" id="Shape" fill="#4285F4"/><path d="M220 13c0 3.456-2.69 6-6 6s-6-2.544-6-6c0-3.476 2.69-6 6-6s6 2.524 6 6zm-2.629 0c0-2.164-1.563-3.636-3.371-3.636-1.807 0-3.371 1.482-3.371 3.636 0 2.134 1.563 3.636 3.371 3.636 1.807 0 3.371-1.492 3.371-3.636z" id="Shape" fill="#E94235"/><path d="M233 13c0 3.456-2.69 6-6 6-3.299 0-6-2.544-6-6 0-3.476 2.69-6 6-6s6 2.524 6 6zm-2.619 0c0-2.164-1.563-3.636-3.371-3.636-1.807 0-3.371 1.482-3.371 3.636 0 2.134 1.563 3.636 3.371 3.636 1.807.01 3.371-1.492 3.371-3.636z" id="Shape" fill="#FABB05"/><path d="M245 7.362v10.531c0 4.336-2.499 6.107-5.457 6.107-2.786 0-4.452-1.908-5.084-3.465l2.192-.93c.393.959 1.35 2.085 2.891 2.085 1.896 0 3.064-1.204 3.064-3.445v-.842h-.086c-.565.714-1.656 1.331-3.025 1.331-2.872 0-5.495-2.554-5.495-5.843 0-3.308 2.633-5.892 5.495-5.892 1.369 0 2.46.626 3.025 1.311h.086v-.949h2.393zm-2.221 5.539c0-2.065-1.35-3.582-3.064-3.582-1.742 0-3.198 1.507-3.198 3.582 0 2.045 1.455 3.533 3.198 3.533 1.714 0 3.064-1.488 3.064-3.533z" id="Shape" fill="#4285F4"/><path id="Shape" fill="#34A853" d="M251 1v18h-3v-18z"/><path d="M260.844 14.973l2.046 1.362c-.662.982-2.256 2.664-5.014 2.664-3.419 0-5.876-2.634-5.876-6 0-3.566 2.487-6 5.585-6 3.119 0 4.643 2.474 5.144 3.816l.271.681-8.032 3.326c.612 1.202 1.574 1.823 2.918 1.823s2.276-.671 2.958-1.673zm-6.307-2.164l5.375-2.224c-.301-.751-1.183-1.272-2.236-1.272-1.344 0-3.209 1.182-3.139 3.496z" fill="#E94235"/></g></g></svg>
